packages/ui-icons/svg/Line/notepad.svg

<svg viewBox="0 0 1920 1920" xmlns="http://www.w3.org/2000/svg">
    <g fill-rule="evenodd">
        <path d="M106.667 267H320v213.333h853.33V267h213.34v160h106.66V160.333h-329.1C1142.26 98.19 1083 53.667 1013.33 53.667H480c-69.665 0-128.931 44.523-150.896 106.666H0V1867h1493.33v-320h-106.66v213.33H106.667V267Zm320 106.667v-160c0-29.456 23.878-53.334 53.333-53.334h533.33c29.46 0 53.34 23.878 53.34 53.334v160H426.667Z"/>
        <path d="m1677.57 528.309 225.88 225.883c22.02 22.023 22.02 57.713 0 79.849L1225.8 1511.69c-10.62 10.5-24.96 16.49-39.98 16.49H959.937c-31.171 0-56.47-25.3-56.47-56.47v-225.89c0-15.02 5.986-29.36 16.489-39.86L1597.6 528.309c22.14-22.136 57.83-22.136 79.97 0Zm-155.41 235.144 146.03 146.033 115.43-115.426-146.04-146.033-115.42 115.426Zm-505.75 651.787h146.03l425.9-425.9-146.03-146.038-425.9 425.898v146.04Z"/>
    </g>
</svg>

<svg viewBox="0 0 1920 1920" version="1.1" xmlns="http://www.w3.org/2000/svg">
    <g stroke="none" stroke-width="1" fill-rule="evenodd">
        <path d="M106.667,267 L320,267 L320,480.333 L1173.33,480.333 L1173.33,267 L1386.67,267 L1386.67,427 L1493.33,427 L1493.33,160.333 L1164.23,160.333 C1142.26,98.19 1083,53.667 1013.33,53.667 L480,53.667 C410.335,53.667 351.069,98.19 329.104,160.333 L0,160.333 L0,1867 L1493.33,1867 L1493.33,1547 L1386.67,1547 L1386.67,1760.33 L106.667,1760.33 L106.667,267 Z M426.667,373.667 L426.667,213.667 C426.667,184.211 450.545,160.333 480,160.333 L1013.33,160.333 C1042.79,160.333 1066.67,184.211 1066.67,213.667 L1066.67,373.667 L426.667,373.667 Z"/>
        <path d="M1677.57,528.309 L1903.45,754.192 C1925.47,776.215 1925.47,811.905 1903.45,834.041 L1225.8,1511.69 C1215.18,1522.19 1200.84,1528.18 1185.82,1528.18 L959.937,1528.18 C928.766,1528.18 903.467,1502.88 903.467,1471.71 L903.467,1245.82 C903.467,1230.8 909.453,1216.46 919.956,1205.96 L1597.6,528.309 C1619.74,506.173 1655.43,506.173 1677.57,528.309 Z M1522.16,763.453 L1668.19,909.486 L1783.62,794.06 L1637.58,648.027 L1522.16,763.453 Z M1016.41,1415.24 L1162.44,1415.24 L1588.34,989.34 L1442.31,843.302 L1016.41,1269.2 L1016.41,1415.24 Z"/>
    </g>
</svg>
